app/client/src/widgets/wds/WDSModalWidget/thumbnail.svg

<svg width="77" height="79" viewBox="0 0 77 79" fill="none" xmlns="http://www.w3.org/2000/svg">
<g filter="url(#filter0_d_7044_126705)">
<mask id="path-1-outside-1_7044_126705" maskUnits="userSpaceOnUse" x="8" y="10" width="57" height="57" fill="black">
<rect fill="white" x="8" y="10" width="57" height="57"/>
<path d="M8 13C8 11.3431 9.34315 10 11 10H61C62.6569 10 64 11.3431 64 13V63C64 64.6569 62.6569 66 61 66H11C9.34314 66 8 64.6569 8 63V13Z"/>
</mask>
<path d="M8 13C8 11.3431 9.34315 10 11 10H61C62.6569 10 64 11.3431 64 13V63C64 64.6569 62.6569 66 61 66H11C9.34314 66 8 64.6569 8 63V13Z" fill="white"/>
<path d="M8 10H64H8ZM65 63C65 65.2091 63.2091 67 61 67H12C9.79086 67 8 65.2091 8 63C8 64.1046 9.34315 65 11 65H61C62.1046 65 63 64.1046 63 63H65ZM8 66V10V66ZM61 10C63.2091 10 65 11.7909 65 14V63C65 65.2091 63.2091 67 61 67V65C62.1046 65 63 64.1046 63 63V13C63 11.3431 62.1046 10 61 10Z" fill="#DCE2E8" mask="url(#path-1-outside-1_7044_126705)"/>
<rect x="16" y="18" width="28" height="9" rx="1" fill="#E3E8EF"/>
<path d="M49.5 19.5L55.5 25.5M55.5 19.5L49.5 25.5" stroke="#CC3D00" stroke-linecap="round"/>
<rect x="16" y="36" width="40" height="6" rx="1" fill="#E3E8EF"/>
<rect x="16" y="44" width="40" height="6" rx="1" fill="#E3E8EF"/>
<rect x="16" y="52" width="24" height="6" rx="1" fill="#E3E8EF"/>
</g>
<defs>
<filter id="filter0_d_7044_126705" x="4" y="6" width="73" height="73" filterUnits="userSpaceOnUse" color-interpolation-filters="sRGB">
<feFlood flood-opacity="0" result="BackgroundImageFix"/>
<feColorMatrix in="SourceAlpha" type="matrix" values="0 0 0 0 0 0 0 0 0 0 0 0 0 0 0 0 0 0 127 0" result="hardAlpha"/>
<feOffset dx="4" dy="4"/>
<feGaussianBlur stdDeviation="4"/>
<feComposite in2="hardAlpha" operator="out"/>
<feColorMatrix type="matrix" values="0 0 0 0 0.862745 0 0 0 0 0.886275 0 0 0 0 0.909804 0 0 0 1 0"/>
<feBlend mode="normal" in2="BackgroundImageFix" result="effect1_dropShadow_7044_126705"/>
<feBlend mode="normal" in="SourceGraphic" in2="effect1_dropShadow_7044_126705" result="shape"/>
</filter>
</defs>
</svg>

<svg xmlns="http://www.w3.org/2000/svg" width="77" height="79" fill="none"><g filter="url(#a)"><mask id="b" width="57" height="57" x="8" y="10" fill="#000" maskUnits="userSpaceOnUse"><path fill="#fff" d="M8 10h57v57H8z"/><path d="M8 13a3 3 0 0 1 3-3h50a3 3 0 0 1 3 3v50a3 3 0 0 1-3 3H11a3 3 0 0 1-3-3V13Z"/></mask><path fill="#fff" d="M8 13a3 3 0 0 1 3-3h50a3 3 0 0 1 3 3v50a3 3 0 0 1-3 3H11a3 3 0 0 1-3-3V13Z"/><path fill="#DCE2E8" d="M8 10h56H8Zm57 53a4 4 0 0 1-4 4H12a4 4 0 0 1-4-4c0 1.105 1.343 2 3 2h50a2 2 0 0 0 2-2h2ZM8 66V10v56Zm53-56a4 4 0 0 1 4 4v49a4 4 0 0 1-4 4v-2a2 2 0 0 0 2-2V13c0-1.657-.895-3-2-3Z" mask="url(#b)"/><rect width="28" height="9" x="16" y="18" fill="#E3E8EF" rx="1"/><path stroke="#CC3D00" stroke-linecap="round" d="m49.5 19.5 6 6m0-6-6 6"/><rect width="40" height="6" x="16" y="36" fill="#E3E8EF" rx="1"/><rect width="40" height="6" x="16" y="44" fill="#E3E8EF" rx="1"/><rect width="24" height="6" x="16" y="52" fill="#E3E8EF" rx="1"/></g><defs><filter id="a" width="73" height="73" x="4" y="6" color-interpolation-filters="sRGB" filterUnits="userSpaceOnUse"><feFlood flood-opacity="0" result="BackgroundImageFix"/><feColorMatrix in="SourceAlpha" result="hardAlpha" values="0 0 0 0 0 0 0 0 0 0 0 0 0 0 0 0 0 0 127 0"/><feOffset dx="4" dy="4"/><feGaussianBlur stdDeviation="4"/><feComposite in2="hardAlpha" operator="out"/><feColorMatrix values="0 0 0 0 0.862745 0 0 0 0 0.886275 0 0 0 0 0.909804 0 0 0 1 0"/><feBlend in2="BackgroundImageFix" result="effect1_dropShadow_7044_126705"/><feBlend in="SourceGraphic" in2="effect1_dropShadow_7044_126705" result="shape"/></filter></defs></svg>
